X:1
T:Thomas Hastings
T:Chester
%%score { ( 1 2 ) | ( 3 4 ) }
L:1/8
M:4/4
K:Bb
V:1 treble 
V:2 treble 
V:3 bass 
V:4 bass 
V:1
 F2 | B2 d2 f2 dB | AGec (B2 A)F | G>AB>G F2 D>E | F4 z2 F2 | B2 d2 f2 dB | AGec (B2 A)B | %7
 G>AB>c d2 c2 | B4 z2 B2 | G2 B>A F2 B>A | B4 |] %11
V:2
 F2 | F2 F2 F2 FD | E2 G2 F3 F | E2 E2 D2 B,>C | D4 z2 F2 | F2 F2 F2 FD | E2 G2 F3 F | %7
 E2 F>G F2 ED | D4 z2 D2 | E2 E2 F2 D>E | D4 |] %11
V:3
 D2 | D2 D2 C2 B,2 | B,2 CE (D2 C)B, | B,2 G,2 B,2 F,2 | B,4 z2 D2 | D2 D2 C2 B,2 | %6
 B,2 CE (D2 C)B, | B,2 B,2 B,2 A,2 | B,4 z2 B,2 | B,2 G,2 B,2 F,2 | F,4 |] %11
V:4
 B,,2 | B,,2 B,2 A,2 B,2 | E,2 C,2 F,3 D, | E,2 E,2 B,,2 B,,2 | B,,4 z2 B,,2 | B,,2 B,2 A,2 B,2 | %6
 E,2 C,2 F,3 D, | E,2 D,>E, F,2 F,2 | B,,4 z2 B,,2 | E,2 E,2 D,2 B,,2 | B,,4 |] %11

